X:339
T: "Maria's Kirchgang "
N: Z1019
O: Europa, Mitteleuropa, Deutschland, Rhein
R: Romanze, Ballade, Maria, Tod, geistlich
M: 3/4
L: 1/16
K: A
E4 | A3Bc4B2d2 | c2B2A4z2
E2 | A3Bc4B2d2 | c2B2A4z2
B2 | E2G2A2F2B2c2 | A2G2F4z2
B2 | E2G2A2F2B2c2 | A2G2F4

